src/assets/icons/menuIcon.svg

<svg width="24" height="24" viewBox="0 0 24 24" fill="none" xmlns="http://www.w3.org/2000/svg">
<path d="M1 5.5C1 6.60949 1.06075 7.43281 1.19863 8.0532C1.33399 8.66225 1.53001 9.01274 1.75864 9.24136C1.98726 9.46999 2.33775 9.66601 2.9468 9.80137C3.56719 9.93925 4.39051 10 5.5 10C6.60949 10 7.43281 9.93925 8.0532 9.80137C8.66225 9.66601 9.01274 9.46999 9.24136 9.24136C9.46999 9.01274 9.66601 8.66225 9.80137 8.0532C9.93925 7.43281 10 6.60949 10 5.5C10 4.39051 9.93925 3.56719 9.80137 2.9468C9.66601 2.33775 9.46999 1.98726 9.24136 1.75864C9.01274 1.53001 8.66225 1.33399 8.0532 1.19863C7.43281 1.06075 6.60949 1 5.5 1C4.39051 1 3.56719 1.06075 2.9468 1.19863C2.33775 1.33399 1.98726 1.53001 1.75864 1.75864C1.53001 1.98726 1.33399 2.33775 1.19863 2.9468C1.06075 3.56719 1 4.39051 1 5.5Z" stroke="#212135" stroke-width="2" stroke-linecap="round" stroke-linejoin="round"/>
<path d="M1 18.5C1 19.6095 1.06075 20.4328 1.19863 21.0532C1.33399 21.6622 1.53001 22.0127 1.75864 22.2414C1.98726 22.47 2.33775 22.666 2.9468 22.8014C3.56719 22.9392 4.39051 23 5.5 23C6.60949 23 7.43281 22.9392 8.0532 22.8014C8.66225 22.666 9.01274 22.47 9.24136 22.2414C9.46999 22.0127 9.66601 21.6622 9.80137 21.0532C9.93925 20.4328 10 19.6095 10 18.5C10 17.3905 9.93925 16.5672 9.80137 15.9468C9.66601 15.3378 9.46999 14.9873 9.24136 14.7586C9.01274 14.53 8.66225 14.334 8.0532 14.1986C7.43281 14.0608 6.60949 14 5.5 14C4.39051 14 3.56719 14.0608 2.9468 14.1986C2.33775 14.334 1.98726 14.53 1.75864 14.7586C1.53001 14.9873 1.33399 15.3378 1.19863 15.9468C1.06075 16.5672 1 17.3905 1 18.5Z" stroke="#212135" stroke-width="2" stroke-linecap="round" stroke-linejoin="round"/>
<path d="M14 5.5C14 6.60949 14.0608 7.43281 14.1986 8.0532C14.334 8.66225 14.53 9.01274 14.7586 9.24136C14.9873 9.46999 15.3378 9.66601 15.9468 9.80137C16.5672 9.93925 17.3905 10 18.5 10C19.6095 10 20.4328 9.93925 21.0532 9.80137C21.6622 9.66601 22.0127 9.46999 22.2414 9.24136C22.47 9.01274 22.666 8.66225 22.8014 8.0532C22.9392 7.43281 23 6.60949 23 5.5C23 4.39051 22.9392 3.56719 22.8014 2.9468C22.666 2.33775 22.47 1.98726 22.2414 1.75864C22.0127 1.53001 21.6622 1.33399 21.0532 1.19863C20.4328 1.06075 19.6095 1 18.5 1C17.3905 1 16.5672 1.06075 15.9468 1.19863C15.3378 1.33399 14.9873 1.53001 14.7586 1.75864C14.53 1.98726 14.334 2.33775 14.1986 2.9468C14.0608 3.56719 14 4.39051 14 5.5Z" stroke="#212135" stroke-width="2" stroke-linecap="round" stroke-linejoin="round"/>
<path d="M14 18.5C14 19.6095 14.0608 20.4328 14.1986 21.0532C14.334 21.6622 14.53 22.0127 14.7586 22.2414C14.9873 22.47 15.3378 22.666 15.9468 22.8014C16.5672 22.9392 17.3905 23 18.5 23C19.6095 23 20.4328 22.9392 21.0532 22.8014C21.6622 22.666 22.0127 22.47 22.2414 22.2414C22.47 22.0127 22.666 21.6622 22.8014 21.0532C22.9392 20.4328 23 19.6095 23 18.5C23 17.3905 22.9392 16.5672 22.8014 15.9468C22.666 15.3378 22.47 14.9873 22.2414 14.7586C22.0127 14.53 21.6622 14.334 21.0532 14.1986C20.4328 14.0608 19.6095 14 18.5 14C17.3905 14 16.5672 14.0608 15.9468 14.1986C15.3378 14.334 14.9873 14.53 14.7586 14.7586C14.53 14.9873 14.334 15.3378 14.1986 15.9468C14.0608 16.5672 14 17.3905 14 18.5Z" stroke="#212135" stroke-width="2" stroke-linecap="round" stroke-linejoin="round"/>
</svg>

<svg width="24" height="24" fill="none" xmlns="http://www.w3.org/2000/svg"><path d="M1 5.5c0 1.11.06 1.933.199 2.553.135.61.331.96.56 1.188.228.229.579.425 1.188.56C3.567 9.94 4.39 10 5.5 10c1.11 0 1.933-.06 2.553-.199.61-.135.96-.331 1.188-.56.229-.228.425-.579.56-1.188C9.94 7.433 10 6.61 10 5.5c0-1.11-.06-1.933-.199-2.553-.135-.61-.331-.96-.56-1.188-.228-.229-.579-.425-1.188-.56C7.433 1.06 6.61 1 5.5 1c-1.11 0-1.933.06-2.553.199-.61.135-.96.331-1.188.56-.229.228-.425.579-.56 1.188C1.06 3.567 1 4.39 1 5.5ZM1 18.5c0 1.11.06 1.933.199 2.553.135.61.331.96.56 1.188.228.229.579.425 1.188.56.62.138 1.444.199 2.553.199 1.11 0 1.933-.06 2.553-.199.61-.135.96-.331 1.188-.56.229-.228.425-.579.56-1.188.138-.62.199-1.444.199-2.553 0-1.11-.06-1.933-.199-2.553-.135-.61-.331-.96-.56-1.188-.228-.229-.579-.425-1.188-.56C7.433 14.06 6.61 14 5.5 14c-1.11 0-1.933.06-2.553.199-.61.135-.96.331-1.188.56-.229.228-.425.579-.56 1.188C1.06 16.567 1 17.39 1 18.5ZM14 5.5c0 1.11.06 1.933.199 2.553.135.61.331.96.56 1.188.228.229.579.425 1.188.56.62.138 1.444.199 2.553.199 1.11 0 1.933-.06 2.553-.199.61-.135.96-.331 1.188-.56.229-.228.425-.579.56-1.188C22.94 7.433 23 6.61 23 5.5c0-1.11-.06-1.933-.199-2.553-.135-.61-.331-.96-.56-1.188-.228-.229-.579-.425-1.188-.56C20.433 1.06 19.61 1 18.5 1c-1.11 0-1.933.06-2.553.199-.61.135-.96.331-1.188.56-.229.228-.425.579-.56 1.188C14.06 3.567 14 4.39 14 5.5ZM14 18.5c0 1.11.06 1.933.199 2.553.135.61.331.96.56 1.188.228.229.579.425 1.188.56.62.138 1.444.199 2.553.199 1.11 0 1.933-.06 2.553-.199.61-.135.96-.331 1.188-.56.229-.228.425-.579.56-1.188.138-.62.199-1.444.199-2.553 0-1.11-.06-1.933-.199-2.553-.135-.61-.331-.96-.56-1.188-.228-.229-.579-.425-1.188-.56C20.433 14.06 19.61 14 18.5 14c-1.11 0-1.933.06-2.553.199-.61.135-.96.331-1.188.56-.229.228-.425.579-.56 1.188-.138.62-.199 1.444-.199 2.553Z" stroke="#212135" stroke-width="2" stroke-linecap="round" stroke-linejoin="round"/></svg>
